X: 03007
T: BETH ELDER'S REEL
C: Bob McQuillen 22 May 77
B: Bob's Note Book 03 #7
R: reel
%D:1977
Z: 2020 John Chambers <jc:trillian.mit.edu>
M: C
L: 1/8
K: D
A,B, \
| DFEG FDDF | Adef dAFA | dfeg fdBd | AFDF E2 A,B, |
| DFEG FDDF | Adef dAFA | dfed BdAF | EDEF D2 :|
|: de \
| fdfg fddf | fdfg fddf | g2f2 edef | dBBA B2 de |
| fdfg fddf | fdfg fddf | gafd | edBd | AFEF D2 :|
%%begintext align
%% I wrote this tune for nice
%% girl, but I forgot who it is!
%% Oh, that's right, it's Beth Elder!
%%endtext
